!!!SOCIAL_FUNCTION:	deer dance songs
!!!PDT:	1932
!!!OTL: No_85_The_Little_FLy.krn
!!!REG: Southwest
!!!LANG: Non-Tone
!!!LING_GROUP: Yuman-Cochimi
**kern
*staff1
=1-
=
*clefF4
*k[f#]
*M2/4
4r
12B\L
8B\
24B\Jk
=2
4d\
8c\
8r
=3
12e\L
12c\
12c\J
8.c\L
16c\Jk
=4
8B\L
8B\J
8.A\L
16B\Jk
=5||
*M3/4
8A\L
8A\J
4G\
8G\
8r
=6||
*M2/4
12B\L
12B\
12B\J
8.B\L
16A\Jk
=7
8G\L
8G\J
8.A\L
16B\Jk
=8||
*M3/4
8A\L
8A\J
4G\
8G\
8r
=9||
*M2/4
12A\L
12B\
12B\J
8.A\L
16A\Jk
=10
8G\L
8G\J
8.G\L
16G\Jk
=11||
*M3/4
8G\L
8G\J
4G\
8G\
8r
=12:|!
2.r
=13
*M2/4
8B\L
8B\J
8.B\L
16B\Jk
=14
8d\L
8d\J
8.B\L
16B\Jk
=15
8B\L
8B\J
8A\L
8G\J
=16
4G\
4r
=17
12d\L
12B\
12B\J
8B\L
24A\K
12A\J
=18
8A\L
8G\J
8.G\L
16A\Jk
=19||
*M3/4
8A\L
8A\J
4G\
8G\
8r
=20||
*M2/4
12A\L
12B\
12B\J
8.A\L
16G\Jk
=21
8G\L
8G\J
8.G\L
16G\Jk
=22||
*M3/4
8G\L
8G\J
4G\
8G\
8r
==
*-
